build/img/svg/icon-fb.svg

<svg viewBox="0 0 14 27" fill="none" xmlns="http://www.w3.org/2000/svg">
<path d="M13.4728 0.0056178L10.1148 0C6.34228 0 3.90429 2.60806 3.90429 6.64474V9.7084H0.528007C0.236257 9.7084 0 9.95503 0 10.2592V14.6981C0 15.0023 0.236526 15.2487 0.528007 15.2487H3.90429V26.4495C3.90429 26.7537 4.14055 27 4.4323 27H8.83738C9.12914 27 9.36539 26.7534 9.36539 26.4495V15.2487H13.3131C13.6048 15.2487 13.8411 15.0023 13.8411 14.6981L13.8427 10.2592C13.8427 10.1132 13.7869 9.97328 13.688 9.86992C13.5892 9.76655 13.4545 9.7084 13.3144 9.7084H9.36539V7.11129C9.36539 5.86302 9.65068 5.22933 11.2102 5.22933L13.4723 5.22849C13.7637 5.22849 14 4.98187 14 4.67794V0.556162C14 0.25252 13.764 0.00617958 13.4728 0.0056178Z" fill="white"/>
</svg>

<svg viewBox="0 0 14 27" fill="none" xmlns="http://www.w3.org/2000/svg"><path d="M13.473.006L10.115 0c-3.773 0-6.21 2.608-6.21 6.645v3.063H.527A.54.54 0 000 10.26v4.44c0 .303.237.55.528.55h3.376v11.2a.54.54 0 00.528.551h4.405a.54.54 0 00.528-.55V15.248h3.948a.54.54 0 00.528-.55l.002-4.44a.563.563 0 00-.155-.39.517.517 0 00-.374-.16H9.365V7.11c0-1.248.286-1.882 1.845-1.882h2.262A.54.54 0 0014 4.677V.556a.54.54 0 00-.527-.55z" fill="#fff"/></svg>
